X: 1
T: Grandmother's Corkscrew
C: David A Kaynor & Susan Reid (22014)
%D:2014
R: reel
B: David A. Kaynor "Living Music and Dance" 2021
Z: 2021 John Chambers <jc:trillian.mit.edu>
S: Dave_Kaynors_Melodies_and_Harmonies.PDF
M: 4/4
L: 1/8
K: Ador
% = = = = = = = = = =
V: 1 staves=2
"^A"|:\
"Am"e2AB cBAc | "E"BEED E4 | "Am"A,2A,B, CDEC | "D7"DEFD "E"E4 |
"Am"e2AB cBAc | "E"BEED E4 | "Am"A,2A,B, CDEC | "D"D4 D4 :|
"^B"|:\
"D"D2DE FEDF | A2AB cBAc | "Am"e2ef gfe2 | "D"f3g f4 |
"D"D2DE FEDF | A2AB cBA2 | "Am"e2ef gfe2 | "D"a8 :|
% = = = = = = = = = =
V: 2
|:\
"Am"c2EG AGEA | "E"EB,B,A, B,4 | "Am"C2CD A,B,CA, | "D7"A,CDA, "E"B4 |
"Am"c2EG AGEA | "E"EB,B,A, B,4 | "Am"C2CD A,B,CA, | "D"[F4A,4] [F4A,4] :|
|:\
"D"A,2A,C DCA,D | F2FG AGFA | "Am"c2cd edc2 | "D"d3e d4 |
"D"A,2A,C DCA,D | F2FG AGF2 | "Am"c2cd edc2 | "D"[f8d8] :|
